X:1
T:Title
L:1/8
M:2/4
I:linebreak $
K:F
V:1 treble nm="Klavír" snm="Kl."
V:1
 d c c G | A E F2 | A2 G2 | A =B c2 |$ d c c G | A E F2 | A2 G2 | A G F2 |] %8
w: Keď ko- má- ra|že- ni- li,|a, m,|že- ni- li,|kvap- ky ví- na|ne- ma- li,|a- m,|ne- ma- li.|

